site/components/case-study/SVG/camden-figure.svg

<?xml version="1.0" encoding="UTF-8" standalone="no"?>
<svg width="372px" height="150px" viewBox="0 0 372 150" version="1.1" xmlns="http://www.w3.org/2000/svg" xmlns:xlink="http://www.w3.org/1999/xlink">
    <!-- Generator: Sketch 40.3 (33839) - http://www.bohemiancoding.com/sketch -->
    <title>Camden_50%</title>
    <desc>Created with Sketch.</desc>
    <defs></defs>
    <g id="Symbols" stroke="none" stroke-width="1" fill="none" fill-rule="evenodd">
        <g id="Camden_50%" fill="#F8F8F8">
            <g id="Group-2">
                <path d="M278.451327,106.79941 C294.539823,106.79941 307.946903,88.6253687 307.946903,70.8982301 L307.946903,70.4513274 C309.287611,70.600295 310.926254,70.600295 312.713864,70.600295 C319.119469,70.600295 324.929204,68.6637168 330.441003,64.1946903 L330.887906,64.6415929 L272.79056,150 L288.730088,150 L354.573746,49 L342.20944,49 C334.612094,55.8525074 326.865782,59.4277286 317.033923,59.4277286 C310.926254,59.4277286 306.30826,58.5339233 302.584071,56.8952802 C299.157817,53.4690265 293.943953,51.5324484 287.538348,51.5324484 C271.59882,51.5324484 257,68.3657817 257,85.7949853 C257,98.9041298 266.384956,106.79941 278.451327,106.79941 L278.451327,106.79941 Z M341.762537,148.212389 C357.851032,148.212389 371.258112,130.038348 371.258112,112.311209 C371.258112,100.393805 363.511799,92.9454277 350.849558,92.9454277 C334.910029,92.9454277 320.311209,109.778761 320.311209,127.207965 C320.311209,140.317109 329.696165,148.212389 341.762537,148.212389 L341.762537,148.212389 Z M345.188791,138.976401 C341.017699,138.976401 338.336283,135.848083 338.336283,130.038348 C338.336283,119.312684 345.933628,102.926254 354.573746,102.926254 C358.744838,102.926254 361.277286,106.054572 361.277286,111.268437 C361.277286,122.589971 353.828909,138.976401 345.188791,138.976401 L345.188791,138.976401 Z M281.877581,97.5634218 C277.70649,97.5634218 275.025074,94.4351032 275.025074,88.6253687 C275.025074,79.0914454 281.132743,64.939528 288.581121,62.1091445 C291.113569,64.6415929 294.09292,66.8761062 297.817109,68.3657817 C297.966077,68.8126844 297.966077,69.4085546 297.966077,69.8554572 C297.966077,81.1769912 290.517699,97.5634218 281.877581,97.5634218 L281.877581,97.5634218 Z" id="%-copy-3"></path>
                <path d="M1.12612613,146.396396 L99.7747748,146.396396 L99.7747748,125.900901 L71.1711712,125.900901 L71.1711712,1.57657658 L47.2972973,1.57657658 C39.1891892,13.963964 21.8468468,20.2702703 0,19.3693694 L0,36.9369369 C5.40540541,38.5135135 12.6126126,39.6396396 19.3693694,39.6396396 C24.0990991,39.6396396 28.1531532,39.1891892 30.8558559,38.5135135 L30.8558559,125.900901 L1.12612613,125.900901 L1.12612613,146.396396 Z M114.63964,45.7207207 C114.63964,66.8918919 127.702703,76.5765766 143.468468,82.6576577 C125.225225,86.9369369 112.612613,97.5225225 112.612613,113.063063 C112.612613,131.756757 131.306306,150 169.369369,150 C205.630631,150 228.828829,129.504505 228.828829,102.477477 C228.828829,80.6306306 212.387387,70.4954955 195.27027,64.4144144 C212.387387,60.1351351 224.54955,49.5495495 224.54955,34.2342342 C224.54955,16.8918919 207.882883,0 171.171171,0 C137.162162,0 114.63964,20.4954955 114.63964,45.7207207 L114.63964,45.7207207 Z M194.144144,115.990991 C194.144144,126.801802 185.135135,133.558559 170.720721,133.558559 C151.801802,133.558559 142.342342,124.324324 142.342342,111.261261 C142.342342,103.153153 145.045045,95.4954955 152.027027,88.0630631 C176.126126,94.8198198 194.144144,101.126126 194.144144,115.990991 L194.144144,115.990991 Z M149.54955,32.6576577 C149.54955,23.6486486 157.207207,16.4414414 169.594595,16.4414414 C185.810811,16.4414414 194.594595,26.5765766 194.594595,37.6126126 C194.594595,45.2702703 191.891892,52.027027 185.810811,58.7837838 C163.288288,52.4774775 149.54955,46.6216216 149.54955,32.6576577 L149.54955,32.6576577 Z" id="18"></path>
            </g>
        </g>
    </g>
</svg>

<svg width="372" height="150" viewBox="0 0 372 150" xmlns="http://www.w3.org/2000/svg"><g fill="#F8F8F8" fill-rule="evenodd"><path d="M278.451 106.8c16.089 0 29.496-18.175 29.496-35.902v-.447c1.34.15 2.98.15 4.767.15 6.405 0 12.215-1.937 17.727-6.406l.447.447L272.79 150h15.94l65.843-101h-12.365c-7.597 6.853-15.343 10.428-25.175 10.428-6.108 0-10.726-.894-14.45-2.533-3.426-3.426-8.64-5.363-15.046-5.363-15.94 0-30.538 16.834-30.538 34.263 0 13.11 9.385 21.004 21.451 21.004zm63.312 41.412c16.088 0 29.495-18.174 29.495-35.9 0-11.918-7.746-19.367-20.408-19.367-15.94 0-30.539 16.834-30.539 34.263 0 13.11 9.385 21.004 21.452 21.004zm3.426-9.236c-4.171 0-6.853-3.128-6.853-8.938 0-10.725 7.598-27.112 16.238-27.112 4.17 0 6.703 3.129 6.703 8.342 0 11.322-7.448 27.708-16.088 27.708zm-63.311-41.413c-4.172 0-6.853-3.128-6.853-8.938 0-9.534 6.108-23.685 13.556-26.516 2.533 2.533 5.512 4.767 9.236 6.257.15.447.15 1.043.15 1.49 0 11.321-7.45 27.707-16.09 27.707zM1.126 146.396h98.649v-20.495H71.17V1.577H47.297C39.19 13.964 21.847 20.27 0 19.369v17.568c5.405 1.577 12.613 2.703 19.37 2.703 4.73 0 8.783-.45 11.486-1.126V125.9H1.126v20.495zM114.64 45.721c0 21.17 13.063 30.856 28.828 36.937-18.243 4.279-30.855 14.865-30.855 30.405 0 18.694 18.693 36.937 56.756 36.937 36.262 0 59.46-20.495 59.46-47.523 0-21.846-16.442-31.982-33.559-38.063 17.117-4.279 29.28-14.864 29.28-30.18C224.55 16.892 207.883 0 171.17 0c-34.009 0-56.531 20.495-56.531 45.72zm79.504 70.27c0 10.81-9.009 17.568-23.423 17.568-18.92 0-28.379-9.235-28.379-22.298 0-8.108 2.703-15.766 9.685-23.198 24.1 6.757 42.117 13.063 42.117 27.928zM149.55 32.658c0-9.01 7.657-16.217 20.045-16.217 16.216 0 25 10.136 25 21.172 0 7.657-2.703 14.414-8.784 21.17-22.523-6.306-36.261-12.161-36.261-26.125z"/></g></svg>
